src/pineapple.svg

<svg xmlns="http://www.w3.org/2000/svg" class="dibsvg-svg dibsvg-pineapple" viewBox="0 0 250 250">
    <path d="M188.5 105.1c-5-12.8-15.7-29.2-38-37.2l30.6-35.6-26.8 8.3 16-29.6-25.9 16 9-26L125 29.8 95.2-.4l8.9 25.6L79.3 8.1l17 33.5-27.6-8.4 29.1 34.6c-4.2 1.6-12.4 5.3-20.7 12.4-10.7 9.3-23.6 26.3-24.1 55.1v46.8c0 1.4.4 13.4 2 18.7 4.2 14.4 19.1 47.9 67.2 48 .5 0 2 .1 4.2.1 7.2 0 21.4-1 35-7.6 17.3-8.4 28-22.7 31.7-42.6.4-2.2.8-11.2 1-13.9V133c-.1-1.1 0-13.7-5.6-27.9zm-8.7 86.7l5.1-5.1c-.2 3.9-.4 7.9-.6 9.7l-4.5-4.6zm-56.3 47.6l-21.1-21.1 21.2-21.2 21 21.2-21.1 21.1zm-8.3.1c-10.8-.9-19.4-3.7-26.3-7.7l9.3-9.3 17 17zM63 195.4c-.4-2.6-.7-5.9-.9-9l4.9 4.9-4 4.1zm-1-60.5l4.5 4.5-4.5 4.5v-9zm109.9 5.6l-21.6 21.6-22.9-23 21.7-21.9 22.8 23.3zM153.3 113l18.8-19c9.4 12.1 12 26.2 12.7 33.7l-8.6 8.6-22.9-23.3zm-7.3 53.4l-22.3 22.2-22.8-22.9 22.1-22.3 23 23zm-22.9-31.6l-21.6-21.7 22.1-21.9 21.3 21.7-21.8 21.9zm-4.3 4.3l-22.1 22.3L75 139.5l22.3-22.1 21.5 21.7zm-48-3.9l-8.2-8.2c1.7-13.9 6.7-24.2 12.6-31.8L93 113.1l-22.2 22.1zM62 177.8v-25.4l8.7-8.7 21.8 21.9L71.3 187l-9.3-9.2zm34.7-7.9l22.7 22.9L98.2 214l-22.7-22.8 21.2-21.3zm31.2 22.9l22.3-22.2 21.1 21.2L149 214l-21.1-21.2zm26.6-26.4l21.6-21.6 8.9 9.1v24.2l-9.5 9.4-21-21.1zm30.5-21.1l-4.7-4.8 4.7-4.7v9.5zm-16.9-55.9L149 108.6 127.8 87l12.9-12.8c1.3.4 2.1.6 2.1.6l.3.1c11 3.2 19.1 8.4 25 14.5zm-44.5-6.7l-9.7-9.9c3.2-.5 6.5-.8 9.8-.8 3.7 0 7.1.3 9.9.7l-10 10zM104.8 15L125 35.5l18.9-19.2-4.8 13.9-14.7 9L109.6 29l-4.8-14zm-9.4 11.5l28.9 19.9 30.1-18.6-8.4 15.4-22 6.8-19.7-6-8.9-17.5zM124 57.3l25-7.8.3.2.2-.3 10.4-3.2-16.7 19.4c-3.6-1-10.7-2.6-19.5-2.6-6.4 0-12.7.8-18.7 2.5L89.3 46.8 124 57.3zm-20.9 18.2l.3-.1c1.2-.4 2.4-.8 3.6-1.1L119.4 87l-22.1 21.9-18.2-18.2c10.9-11.4 23.1-14.9 24-15.2zM64.8 202.1l6.5-6.5L94 218.3l-10.2 10.2c-10.4-7.7-16-18-19-26.4zm66.8 37.7l17.3-17.3 10 10c-.5.3-1 .5-1.5.8-9.3 4.5-18.9 6-25.8 6.5zm32.6-10.4l-11-11.1 22.3-22.3 7.2 7.3c-3.2 11.2-9.4 19.9-18.5 26.1z"/>
</svg>

<svg xmlns="http://www.w3.org/2000/svg" class="dibsvg-svg dibsvg-pineapple" viewBox="0 0 250 250">
    <path d="M188.5,105.1c-5-12.8-15.7-29.2-38-37.2l30.6-35.6l-26.8,8.3L170.3,11l-25.9,16l9-26L125,29.8L95.2-0.4l8.9,25.6L79.3,8.1l17,33.5l-27.6-8.4l29.1,34.6c-4.2,1.6-12.4,5.3-20.7,12.4c-10.7,9.3-23.6,26.3-24.1,55.1V182l0,0.1c0,1.4,0.4,13.4,2,18.7c4.2,14.4,19.1,47.9,67.2,48c0.5,0,2,0.1,4.2,0.1c0,0,0,0,0,0c7.2,0,21.4-1,35-7.6c17.3-8.4,28-22.7,31.7-42.6c0.4-2.2,0.8-11.2,1-13.9l0-51.8C194,131.9,194.1,119.3,188.5,105.1z M179.8,191.8l5.1-5.1c-0.2,3.9-0.4,7.9-0.6,9.7L179.8,191.8zM123.5,239.4l-21.1-21.1l21.2-21.2l21,21.2L123.5,239.4z M115.2,239.5c-10.8-0.9-19.4-3.7-26.3-7.7l9.3-9.3L115.2,239.5z M63,195.4c-0.4-2.6-0.7-5.9-0.9-9l4.9,4.9L63,195.4z M62,134.9l4.5,4.5l-4.5,4.5v-8.5C62,135.3,62,135.1,62,134.9z M171.9,140.5l-21.6,21.6l-22.9-23l21.7-21.9L171.9,140.5z M153.3,113l18.8-19c9.4,12.1,12,26.2,12.7,33.7l-8.6,8.6L153.3,113z M146,166.4l-22.3,22.2l-22.8-22.9l22.1-22.3L146,166.4z M123.1,134.8l-21.6-21.7l22.1-21.9l21.3,21.7L123.1,134.8z M118.8,139.1l-22.1,22.3L75,139.5l22.3-22.1L118.8,139.1z M70.8,135.2l-8.2-8.2c1.7-13.9,6.7-24.2,12.6-31.8L93,113.1L70.8,135.2z M62,177.8v-25.4l8.7-8.7l21.8,21.9L71.3,187L62,177.8z M96.7,169.9l22.7,22.9L98.2,214l-22.7-22.8L96.7,169.9z M127.9,192.8l22.3-22.2l21.1,21.2L149,214L127.9,192.8zM154.5,166.4l21.6-21.6l8.9,9.1v24.2l-9.5,9.4L154.5,166.4z M185,145.3l-4.7-4.8l4.7-4.7V145.3z M168.1,89.4l-19.1,19.2L127.8,87l12.9-12.8c1.3,0.4,2.1,0.6,2.1,0.6l0.3,0.1C154.1,78.1,162.2,83.3,168.1,89.4z M123.6,82.7l-9.7-9.9c3.2-0.5,6.5-0.8,9.8-0.8c3.7,0,7.1,0.3,9.9,0.7L123.6,82.7z M104.8,15L125,35.5l18.9-19.2l-4.8,13.9l-14.7,9l-14.8-10.2L104.8,15z M95.4,26.5l28.9,19.9l30.1-18.6L146,43.2L124,50l-19.7-6L95.4,26.5z M124,57.3l25-7.8l0.3,0.2l0.2-0.3l10.4-3.2l-16.7,19.4c-3.6-1-10.7-2.6-19.5-2.6c-6.4,0-12.7,0.8-18.7,2.5L89.3,46.8L124,57.3z M103.1,75.5l0.3-0.1c1.2-0.4,2.4-0.8,3.6-1.1L119.4,87l-22.1,21.9L79.1,90.7C90,79.3,102.2,75.8,103.1,75.5z M64.8,202.1l6.5-6.5L94,218.3l-10.2,10.2C73.4,220.8,67.8,210.5,64.8,202.1z M131.6,239.8l17.3-17.3l10,10c-0.5,0.3-1,0.5-1.5,0.8C148.1,237.8,138.5,239.3,131.6,239.8z M164.2,229.4l-11-11.1l22.3-22.3l7.2,7.3C179.5,214.5,173.3,223.2,164.2,229.4z"/>
</svg>
